X: 21
T: the Glenrothes
C: Drummond Cook
R: jig
N: Suggested tune for The Glenrothes
B: RSCDS "A Second Book of Graded Scottish Country Dances" (Graded 2) p.43
Z: 2011 John Chambers <jc:trillian.mit.edu>
M: 6/8
L: 1/8
K: A
E |:\
"A"ABA "F#m"c2e | "Bm"dcd "E7"B2E | "A"ABA "E/A7"c2e | "D"fga "C#m"e2e |
"D"fga "F#7"edc | "D#/B7"BcB "E7"B2e | "A"A2e "C#/A"edc |1 "E7"B3 "A"A2"E7"E :|2 "E7"B3 "A"A2A ||
|:\
"D"f2f "D#dim"fga | "E/A"e2e "F#7"efe | "Bm"d2d "G#/E"def | "A"edc "E"B2E |
"F#m"AGA "G#/E"BAB | "A7"cde "D"a2f | "C#/A"eaf "F#m"ecA |1 "E7"B3 "A"A2A :|2 "E7"B3 "A"A2 |]
